X:875
T:Scotsmen Every One 
C:Joe Buchanan's Scottish Tome - Page 434.2
I:434 2
R:Two-step
Z:Carl Allison
L:1/8
M:6/8
K:C
GAB | c3 B3 | G3 A2 B | cBA G3 | (E3 E2) E |
c2 c c2 c | ccc c3 | d2 d d2 c | B2 G ABc |
c3 B3 | G3 A2 B | cBA G3 | (E3 E2) B |
c2 c c2 c | c2 c c2 c |  d2 d GAB |  (c3 c3) |]

